X:1
T:the Bantry Girl's Lament
M:4/4
L:1/4
K:D
D/2-E/2| F F FE/2-D/2| A3/2- F/2 A B| A A AF/2-D/2| E3D/2-E/2| F F FE/2-D/2|\
 A3/2- F/2 A B|A/2-F/2 F D D| D3A/2-B/2| d3/2 e/2 d A| B3/2- A/2 B d|\
 B A AF/2-D/2| E3D/2-E/2| F F FE/2-D/2| A3/2- F/2 A B|A/2-F/2E/2-F/2 D D|\
 D3 z|
